!!!OTL: Der geystliche Meyen
!!!ARE: Europa, Mitteleuropa, Deutschland
!!!SCT: A0578
!!!YEM: Copyright 1995, estate of Helmut Schaffrath.
**kern
*ICvox
*Ivox
*M4/2
*k[b-]
*F:
{2f
=1
2f
2f
2f
2d
=2
1c
2.g
4a
=3
2g
2f
2e
2d
=4
2.c
4d
2c}
{2f
=5
2f
2f
2e
2c
=6
1f
1g
=7
2g
2g
2a
2a
=8
2.g
4f
1g
=9
2.cc
4b-
2a
2g
=10
1f
2b-}
{2g
=11
2a
2g
2f
2e
=12
1.f}
==
!!!AGN: Romanze, Ballade, Lied, religioeses Lied
!! Mainzer Cantual 1605.
!!!ONB: ESAC (Essen Associative Code) Database: ALTDEU
!!!AMT: simple quadruple
!!!AIN: vox
!!!EED: Helmut Schaffrath
!!!EEV: 1.0
*-
